icons/ArrowLeft.svg

<svg width="24" height="24" viewBox="0 0 24 24" fill="none" xmlns="http://www.w3.org/2000/svg">
<path fill-rule="evenodd" clip-rule="evenodd" d="M4.46967,12.5303c-0.29289,-0.2929 -0.29289,-0.7677 0,-1.0606l6.00003,-6.00003c0.2929,-0.29289 0.7677,-0.29289 1.0606,0c0.2929,0.29289 0.2929,0.76777 0,1.06066l-4.71964,4.71967h12.18934c0.4142,0 0.75,0.3358 0.75,0.75c0,0.4142 -0.3358,0.75 -0.75,0.75h-12.18934l4.71964,4.7197c0.2929,0.2929 0.2929,0.7677 0,1.0606c-0.2929,0.2929 -0.7677,0.2929 -1.0606,0z" fill="#002B51"/>
</svg>

<svg width="24" height="24" viewBox="0 0 24 24" fill="none" xmlns="http://www.w3.org/2000/svg">
<path fill-rule="evenodd" clip-rule="evenodd" d="M4.46967 12.5303C4.17678 12.2374 4.17678 11.7626 4.46967 11.4697L10.4697 5.46967C10.7626 5.17678 11.2374 5.17678 11.5303 5.46967C11.8232 5.76256 11.8232 6.23744 11.5303 6.53033L6.81066 11.25H19C19.4142 11.25 19.75 11.5858 19.75 12C19.75 12.4142 19.4142 12.75 19 12.75H6.81066L11.5303 17.4697C11.8232 17.7626 11.8232 18.2374 11.5303 18.5303C11.2374 18.8232 10.7626 18.8232 10.4697 18.5303L4.46967 12.5303Z" fill="#002B51"/>
</svg>
